public/icons/clear.svg

<svg width="10" height="10" viewBox="0 0 24 25" fill="none" xmlns="http://www.w3.org/2000/svg">
<path fill-rule="evenodd" clip-rule="evenodd" d="M12 22.5C17.5228 22.5 22 18.0228 22 12.5C22 6.97715 17.5228 2.5 12 2.5C6.47715 2.5 2 6.97715 2 12.5C2 18.0228 6.47715 22.5 12 22.5ZM8.29289 8.79289C8.68342 8.40237 9.31658 8.40237 9.70711 8.79289L12 11.0858L14.2929 8.79289C14.6834 8.40237 15.3166 8.40237 15.7071 8.79289C16.0976 9.18342 16.0976 9.81658 15.7071 10.2071L13.4142 12.5L15.7071 14.7929C16.0976 15.1834 16.0976 15.8166 15.7071 16.2071C15.3166 16.5976 14.6834 16.5976 14.2929 16.2071L12 13.9142L9.70711 16.2071C9.31658 16.5976 8.68342 16.5976 8.29289 16.2071C7.90237 15.8166 7.90237 15.1834 8.29289 14.7929L10.5858 12.5L8.29289 10.2071C7.90237 9.81658 7.90237 9.18342 8.29289 8.79289Z" fill="#AFB1B6"/>
</svg>

<svg xmlns="http://www.w3.org/2000/svg" width="10" height="10" fill="none" viewBox="0 0 24 25"><path fill="#AFB1B6" fill-rule="evenodd" d="M12 22.5c5.523 0 10-4.477 10-10s-4.477-10-10-10-10 4.477-10 10 4.477 10 10 10ZM8.293 8.793a1 1 0 0 1 1.414 0L12 11.086l2.293-2.293a1 1 0 1 1 1.414 1.414L13.414 12.5l2.293 2.293a1 1 0 0 1-1.414 1.414L12 13.914l-2.293 2.293a1 1 0 0 1-1.414-1.414l2.293-2.293-2.293-2.293a1 1 0 0 1 0-1.414Z" clip-rule="evenodd"/></svg>
